svg/icon/$pac.svg

<svg xmlns="http://www.w3.org/2000/svg" xmlns:xlink="http://www.w3.org/1999/xlink" width="32" height="32" viewBox="0 0 32 32">
  <defs>
    <linearGradient id="$pac-c" x1="50%" x2="50%" y1="0%" y2="100%">
      <stop offset="0%" stop-color="#FFF" stop-opacity=".5"/>
      <stop offset="100%" stop-opacity=".5"/>
    </linearGradient>
    <circle id="$pac-b" cx="16" cy="15" r="15"/>
    <filter id="$pac-a" width="111.7%" height="111.7%" x="-5.8%" y="-4.2%" filterUnits="objectBoundingBox">
      <feOffset dy=".5" in="SourceAlpha" result="shadowOffsetOuter1"/>
      <feGaussianBlur in="shadowOffsetOuter1" result="shadowBlurOuter1" stdDeviation=".5"/>
      <feComposite in="shadowBlurOuter1" in2="SourceAlpha" operator="out" result="shadowBlurOuter1"/>
      <feColorMatrix in="shadowBlurOuter1" values="0 0 0 0 0   0 0 0 0 0   0 0 0 0 0  0 0 0 0.199473505 0"/>
    </filter>
    <path id="$pac-e" d="M9.00861985,18.1983687 C9.00861985,16.1464801 9.00798985,14.0945914 9.00893485,12.0427802 C9.0093286,11.154217 9.23691616,10.3127382 9.57979377,9.49968045 C9.99953139,8.50448038 10.6170103,7.6402338 11.4317581,6.91971855 C12.2191795,6.22351991 13.1134648,5.7037329 14.1246151,5.3777044 C14.9407804,5.11448091 15.7775781,4.97353747 16.6313071,5.00412685 C17.123416,5.0217835 17.6148161,5.12377389 18.101255,5.21523224 C18.7917352,5.34510155 19.4476442,5.58114309 20.0717381,5.90221534 C20.7487521,6.2503921 21.3711923,6.67391939 21.9083462,7.20896236 C22.6666301,7.96448115 23.2354416,8.84382881 23.6334442,9.83020056 C23.7080992,10.0153631 23.7858255,10.1994414 23.8538655,10.3870046 C23.9320643,10.6027565 23.8674893,10.6963832 23.6395867,10.6968478 C22.7931027,10.6984741 21.9460674,10.7148917 21.1005284,10.6883293 C20.6911071,10.675474 20.2755432,10.5925342 19.9187268,10.3749237 C19.7511468,10.272701 19.617823,10.1099965 19.483948,9.96169614 C19.0720853,9.50541112 18.5800552,9.15986737 18.0043925,8.93954644 C17.3317886,8.68213106 16.6401271,8.61963581 15.9234231,8.7533772 C15.0687491,8.91298403 14.3486589,9.29624176 13.7726025,9.93234583 C13.2745874,10.4821027 12.934466,11.1125535 12.8465022,11.8545975 C12.8140572,12.1282756 12.7861797,12.4045092 12.7859435,12.6795813 C12.783266,15.5185848 12.7746035,18.3578207 12.7945272,21.1967468 C12.8022447,22.3043919 12.3904608,23.2147161 11.5999681,23.9713191 C11.1327442,24.4183111 10.5701541,24.7186291 9.93424762,24.8712662 C9.6876813,24.9304314 9.43536622,24.9712431 9.18336615,24.9996641 C9.13107613,25.0056271 9.04626236,24.9309735 9.01617985,24.8734345 C8.98664859,24.8168248 9.00657235,24.7346594 9.00657235,24.6637231 C9.0063361,22.508605 9.00641485,20.3534869 9.00641485,18.1983687 L9.00861985,18.1983687 Z M13.5147119,14.696265 C13.9464983,15.2052102 14.416006,15.5999293 14.9892274,15.8636175 C15.6315913,16.159134 16.3125428,16.2979865 17.0131817,16.2069928 C18.1230058,16.0628743 19.0413886,15.5632221 19.7187175,14.6659854 C19.9203176,14.3988899 20.2168902,14.2642192 20.5367728,14.2135725 C20.8640579,14.1616867 21.1990605,14.1430233 21.5309918,14.1384543 C22.2788808,14.1281546 23.0269273,14.1344273 23.7748162,14.1362859 C24.0211463,14.1369054 24.0336676,14.1503803 23.9617688,14.3700817 C23.6155837,15.4266928 23.0939435,16.3904516 22.3908633,17.2612033 C21.6410843,18.1898037 20.7479016,18.9453225 19.6273675,19.3959543 C19.1243123,19.5981539 18.5877097,19.7643433 18.0515795,19.8311753 C17.3477906,19.9187615 16.6279366,19.9285966 15.9177689,19.9018019 C15.4468438,19.8839129 14.9792261,19.7502489 14.5129472,19.6547636 C14.2514972,19.601329 13.9957958,19.5207125 13.737732,19.4514798 C13.5936982,19.4128365 13.4974657,19.3477083 13.4980169,19.1732327 C13.5028207,17.7279429 13.5007732,16.282808 13.5012457,14.8375957 C13.5013244,14.8062319 13.5069944,14.7749456 13.5147119,14.696265 Z"/>
    <filter id="$pac-d" width="123.3%" height="117.5%" x="-11.7%" y="-6.2%" filterUnits="objectBoundingBox">
      <feOffset dy=".5" in="SourceAlpha" result="shadowOffsetOuter1"/>
      <feGaussianBlur in="shadowOffsetOuter1" result="shadowBlurOuter1" stdDeviation=".5"/>
      <feColorMatrix in="shadowBlurOuter1" values="0 0 0 0 0   0 0 0 0 0   0 0 0 0 0  0 0 0 0.204257246 0"/>
    </filter>
  </defs>
  <g fill="none" fill-rule="evenodd">
    <use fill="#000" filter="url(#$pac-a)" xlink:href="#$pac-b"/>
    <use fill="#F8E42C" xlink:href="#$pac-b"/>
    <use fill="url(#$pac-c)" style="mix-blend-mode:soft-light" xlink:href="#$pac-b"/>
    <circle cx="16" cy="15" r="14.5" stroke="#000" stroke-opacity=".097"/>
    <g>
      <use fill="#000" filter="url(#$pac-d)" xlink:href="#$pac-e"/>
      <use fill="#FFF" xlink:href="#$pac-e"/>
    </g>
  </g>
</svg>

<svg height="32" width="32" xmlns="http://www.w3.org/2000/svg" xmlns:xlink="http://www.w3.org/1999/xlink"><defs><linearGradient id="c" x1="50%" x2="50%" y1="0%" y2="100%"><stop offset="0" stop-color="#fff" stop-opacity=".5"/><stop offset="1" stop-opacity=".5"/></linearGradient><circle id="b" cx="16" cy="15" r="15"/><filter id="a" height="111.7%" width="111.7%" x="-5.8%" y="-4.2%"><feOffset dy=".5" in="SourceAlpha" result="shadowOffsetOuter1"/><feGaussianBlur in="shadowOffsetOuter1" result="shadowBlurOuter1" stdDeviation=".5"/><feComposite in="shadowBlurOuter1" in2="SourceAlpha" operator="out" result="shadowBlurOuter1"/><feColorMatrix in="shadowBlurOuter1" values="0 0 0 0 0 0 0 0 0 0 0 0 0 0 0 0 0 0 0.199473505 0"/></filter><path id="e" d="M9.009 18.198v-6.155c0-.889.228-1.73.57-2.543a7.079 7.079 0 0 1 1.853-2.58 7.504 7.504 0 0 1 2.693-1.542c.816-.264 1.653-.404 2.506-.374.492.018.984.12 1.47.211a7.21 7.21 0 0 1 1.97.687c.678.348 1.3.772 1.837 1.307a7.752 7.752 0 0 1 1.725 2.621c.075.185.153.37.22.557.08.216.014.31-.213.31-.847.001-1.694.018-2.54-.009-.409-.013-.824-.095-1.181-.313-.168-.102-.301-.265-.435-.413a3.807 3.807 0 0 0-1.48-1.022 3.771 3.771 0 0 0-2.08-.187c-.855.16-1.575.543-2.151 1.18-.498.55-.839 1.18-.926 1.922-.033.273-.06.55-.061.825-.003 2.839-.011 5.678.009 8.517.007 1.107-.405 2.018-1.195 2.774a3.587 3.587 0 0 1-1.666.9c-.246.06-.499.1-.75.129-.053.006-.138-.069-.168-.127-.03-.056-.01-.138-.01-.21v-6.465zm4.506-3.502c.431.51.901.904 1.474 1.168.643.295 1.324.434 2.024.343 1.11-.144 2.028-.644 2.706-1.541.201-.267.498-.402.818-.452a6.98 6.98 0 0 1 .994-.076c.748-.01 1.496-.004 2.244-.002.246 0 .259.014.187.234a9.045 9.045 0 0 1-1.571 2.891c-.75.929-1.643 1.684-2.764 2.135-.503.202-1.04.368-1.575.435-.704.088-1.424.098-2.134.07-.471-.017-.939-.15-1.405-.246-.262-.054-.517-.134-.775-.204-.144-.038-.24-.103-.24-.278.005-1.445.003-2.89.003-4.335 0-.032.006-.063.014-.142z"/><filter id="d" height="117.5%" width="123.3%" x="-11.7%" y="-6.2%"><feOffset dy=".5" in="SourceAlpha" result="shadowOffsetOuter1"/><feGaussianBlur in="shadowOffsetOuter1" result="shadowBlurOuter1" stdDeviation=".5"/><feColorMatrix in="shadowBlurOuter1" values="0 0 0 0 0 0 0 0 0 0 0 0 0 0 0 0 0 0 0.204257246 0"/></filter></defs><g fill="none" fill-rule="evenodd"><use fill="#000" filter="url(#a)" xlink:href="#b"/><use fill="#f8e42c" xlink:href="#b"/><use fill="url(#c)" xlink:href="#b"/><circle cx="16" cy="15" r="14.5" stroke="#000" stroke-opacity=".097"/><use fill="#000" filter="url(#d)" xlink:href="#e"/><use fill="#fff" xlink:href="#e"/></g></svg>
